X: 21002
M: 6/8
L: 1/8
K: Bb
V: 1 name="2"
d |\
cd=e fed | dcc cBA | Bcd dcB | BAA A2c |\
cff a2f | dgg b2g | faf =ede | gff "^D.C."f2 |]
g |\
gab bag | g^ff f2d | e3 edc | cBB B2d |\
gba g^fd | egf edc | BAG AGF | G3- "^D.C."G2 |]


